X: 288
T: Capt Mc Donalds Rant
%R: hornpipe, reel
Z: 2014 John Chambers <jc:trillian.mit.edu>
B: Preston "Twenty four Country Dances for the Year 1796" p.124 #2
F: http://www.vwml.org/browse/browse-collections-dance-tune-books/browse-prestons1796# 2014-8-10
M: C|
L: 1/8
K: D
A |\
F>AGB A>D F/E/D | B,DA,G F/E/D EG |\
F>AGB A>D F/E/D | FdGB ADD :|
a |\
(fe/d/) A>d fdaf | f/e/d a>d ge2g |\
f/e/d A>d fdad | B<d Gg fd2g |
(f/e/d) A>d g>baf | gefd c>deg |\
f>d cB/A/ B>d AG/F/ | GBAc dD2 |]
% - - - - - - - - - - - - - - - - - - - - - - - - -
%%begintext align
%% Lead down 2 Cu: up again .| the 2d Cu:
%% do the same :| the 1st & 2d Cu: Le poossette :|.
%% Allemande with your partner :|:
%%endtext
% - - - - - - - - - - - - - - - - - - - - - - - - -

%%sep 1 1 500
%%sep 1 1 500
